media/images/youtube.svg

<svg width="29" height="21" viewBox="0 0 29 21" fill="none" xmlns="http://www.w3.org/2000/svg">
<path fill-rule="evenodd" clip-rule="evenodd" d="M27.4639 2.70417C26.6903 1.32815 25.8508 1.07505 24.1415 0.978801C22.4339 0.862944 18.1401 0.814819 14.4202 0.814819C10.6932 0.814819 6.39762 0.862944 4.69185 0.977019C2.98609 1.07505 2.14479 1.32637 1.3641 2.70417C0.567363 4.07841 0.15741 6.44544 0.15741 10.6127V10.627C0.15741 14.7764 0.567363 17.1613 1.3641 18.5213C2.14479 19.8973 2.98431 20.1468 4.69007 20.2627C6.39762 20.3625 10.6932 20.4213 14.4202 20.4213C18.1401 20.4213 22.4339 20.3625 24.1433 20.2644C25.8526 20.1486 26.6921 19.8991 27.4657 18.523C28.2695 17.1631 28.6759 14.7782 28.6759 10.6288V10.6198V10.6145C28.6759 6.44544 28.2695 4.07841 27.4639 2.70417Z" fill="#F44336"/>
<path fill-rule="evenodd" clip-rule="evenodd" d="M10.8519 15.9653V5.27087L19.7639 10.6181L10.8519 15.9653Z" fill="#FAFAFA"/>
</svg>

<svg width="29" height="21" fill="none" xmlns="http://www.w3.org/2000/svg"><path fill-rule="evenodd" clip-rule="evenodd" d="M27.464 2.704C26.69 1.328 25.85 1.075 24.142.98 22.434.863 18.14.815 14.42.815c-3.727 0-8.022.048-9.728.162-1.706.098-2.547.35-3.328 1.727C.567 4.078.157 6.445.157 10.613v.014c0 4.15.41 6.534 1.207 7.894.78 1.376 1.62 1.626 3.326 1.742 1.708.1 6.003.158 9.73.158 3.72 0 8.014-.058 9.723-.157 1.71-.115 2.55-.365 3.323-1.741.803-1.36 1.21-3.745 1.21-7.894v-.015c0-4.169-.406-6.536-1.212-7.91z" fill="#F44336"/><path fill-rule="evenodd" clip-rule="evenodd" d="M10.852 15.965V5.271l8.912 5.347-8.912 5.347z" fill="#FAFAFA"/></svg>
